X: 11
T: Dunmore Lasses, The
Z: UPipes & harp
S: https://thesession.org/tunes/462#setting46956
R: reel
M: 4/4
L: 1/8
K: Emin
|:~E3F ~G3A|Be ed Be~e2|~E3F ~G2BG|AcBA GEFD|
~E3F ~G3 A|Beed e3f|(3gfe fd edBG|AcBA GEFD:|
|:g2eg fe dA|B~e3 Be ef|~g2eg fe dB|AcBA GE E2|
g2eg fe dA|Be ed ~e2 z f|(3gfe fd edBG|AcBA GE E2:|

